icons/bazel.svg

<svg width="16" height="16" viewBox="0 0 16 16" fill="none" xmlns="http://www.w3.org/2000/svg">
<path d="M2.5 5.5L5 2.5L8 5.5L5.5 8L2.5 5.5Z" fill="#73EE72"/>
<path d="M8 5.5L10.5 2.5L13.5 5.5L11 8L8 5.5Z" fill="#73EE72"/>
<path d="M5 8L7.5 5L10.5 8L8 10.5L5 8Z" fill="#73EE72"/>
<path fill-rule="evenodd" clip-rule="evenodd" d="M10.3983 2.16875C10.5936 1.97364 10.9101 1.97371 11.1053 2.16891L13.852 4.91566C13.8621 4.92551 13.8717 4.93576 13.8809 4.94639C13.9504 5.02668 13.9901 5.12384 14 5.2234C14.0016 5.23993 14.0025 5.25653 14.0025 5.27312L14.0025 5.27554V7.97346C14.0025 8.10599 13.9499 8.2331 13.8562 8.32685L11.1132 11.0723L11.1051 11.0807L8.35178 13.8314C8.20874 13.9743 7.99372 14.017 7.80694 13.9396C7.74122 13.9124 7.68355 13.8722 7.6364 13.8226L4.89532 11.0816L4.8939 11.0802L2.14313 8.32685C2.04946 8.2331 1.99684 8.10599 1.99684 7.97346V5.27324V5.27321C1.99685 5.15777 2.03658 5.04234 2.11603 4.94918C2.126 4.93747 2.13651 4.9262 2.14755 4.91542L4.89406 2.16891C5.08933 1.97365 5.40591 1.97365 5.60117 2.16891L7.99856 4.56629L10.3983 2.16875ZM10.7515 3.22941L12.7955 5.27338L10.7515 7.31925L8.70567 5.2734L10.7515 3.22941ZM7.99856 5.9805L10.0444 8.02636L7.99857 10.0703L5.95457 8.02637L7.99856 5.9805ZM7.29144 5.27339L5.24762 3.22957L3.2038 5.27338L5.24763 7.31909L7.29144 5.27339Z" fill="#1D9754"/>
</svg>

<svg xmlns="http://www.w3.org/2000/svg" width="16" height="16" fill="none" viewBox="0 0 16 16"><path fill="#73EE72" d="m2.5 5.5 2.5-3 3 3L5.5 8zm5.5 0 2.5-3 3 3L11 8z"/><path fill="#73EE72" d="m5 8 2.5-3 3 3L8 10.5z"/><path fill="#1D9754" fill-rule="evenodd" d="M10.398 2.169a.5.5 0 0 1 .707 0l2.747 2.747a.5.5 0 0 1 .15.357v2.7a.5.5 0 0 1-.146.354l-2.743 2.745-.008.009-2.753 2.75a.5.5 0 0 1-.716-.008l-2.74-2.741-.002-.002-2.75-2.753a.5.5 0 0 1-.147-.354v-2.7a.5.5 0 0 1 .15-.358L4.895 2.17a.5.5 0 0 1 .707 0L8 4.566zm.354 1.06 2.043 2.044-2.043 2.046-2.046-2.046zM7.999 5.981l2.045 2.045L8 10.07 5.955 8.026zm-.708-.708L5.248 3.23 3.204 5.273 5.248 7.32z" clip-rule="evenodd"/></svg>
